// 2025-10-29 consolidated mixer include. master, tracks, returns, fx wiring, nil safe helpers
// ~lcxlParam[\b1_s1_f] = { |val| ("LCXL b1_s1_f: %\n".format(val)).post };
(
var chan;  // declare vars at top

// helper. resolve bus index from a MixerChannel safely
~busOf = { |chan|
    if(chan.notNil and: { chan.respondsTo(\inbus) }) { chan.inbus.index } { 0 }
};

// master
~m1.tryPerform(\free);
~m1 = MixerChannel.new(\m1, s, 2, 2, outbus: 0);
~lcxlParam[\b8_s8_f] = { |x| ~m1.level_(x.linlin(0, 127, 0.0, 1.0)) };
// ~apcBindParam.(\master_f, { |x| ~m1.level_(x) });

// tracks. all outbus -> master inbus
~t1  = MixerChannel.new(\t1,  s, 2, 2, outbus: ~m1.inbus);
~t2  = MixerChannel.new(\t2,  s, 2, 2, outbus: ~m1.inbus);
~t3  = MixerChannel.new(\t3,  s, 2, 2, outbus: ~m1.inbus);
~t4  = MixerChannel.new(\t4,  s, 2, 2, outbus: ~m1.inbus);
~t5  = MixerChannel.new(\t5,  s, 2, 2, outbus: ~m1.inbus);
~t6  = MixerChannel.new(\t6,  s, 2, 2, outbus: ~m1.inbus);
~t7  = MixerChannel.new(\t7,  s, 2, 2, outbus: ~m1.inbus);
~t8  = MixerChannel.new(\t8,  s, 2, 2, outbus: ~m1.inbus);
~t9  = MixerChannel.new(\t9,  s, 2, 2, outbus: ~m1.inbus);
~t10 = MixerChannel.new(\t10, s, 2, 2, outbus: ~m1.inbus);
~t11 = MixerChannel.new(\t11, s, 2, 2, outbus: ~m1.inbus);
~t12 = MixerChannel.new(\t12, s, 2, 2, outbus: ~m1.inbus);

// example controller binds. keep your originals if preferred
~lcxlParam[\b1_s1_f] = { |x| ~t1.level_(x.linlin(0, 127, 0.0, 1.0)) };
~lcxlParam[\b1_s1_r3] = { |x| ~t1.pan_(x.linlin(0, 127, -1, 1)) };
// ~apcBindParam.(\b0_s1_f,  { |x| ~t1.level_(x) });
// ~apcBindParam.(\b0_s1_r1, { |x| ~t1.pan_(x.linlin(0, 1, -1, 1)) });

~lcxlParam[\b1_s2_f] = { |x| ~t2.level_(x.linlin(0, 127, 0.0, 1.0)) };
~lcxlParam[\b1_s2_r3] = { |x| ~t2.pan_(x.linlin(0, 127, -1, 1)) };
// ~apcBindParam.(\b0_s2_f,  { |x| ~t2.level_(x) });
// ~apcBindParam.(\b0_s2_r1, { |x| ~t2.pan_(x.linlin(0, 1, -1, 1)) });

~lcxlParam[\b1_s3_f] = { |x| ~t3.level_(x.linlin(0, 127, 0.0, 1.0)) };
~lcxlParam[\b1_s3_r3] =  { |x| ~t3.pan_(x.linlin(0, 127, -1, 1)) };
// ~apcBindParam.(\b0_s3_f,  { |x| ~t3.level_(x) });
// ~apcBindParam.(\b0_s3_r1, { |x| ~t3.pan_(x.linlin(0, 1, -1, 1)) });

~lcxlParam[\b1_s4_f] = { |x| ~t4.level_(x.linlin(0, 127, 0.0, 1.0)) };
~lcxlParam[\b1_s4_r3] = { |x| ~t4.pan_(x.linlin(0, 127, -1, 1)) };
// ~apcBindParam.(\b0_s4_f,  { |x| ~t4.level_(x) });
// ~apcBindParam.(\b0_s4_r1, { |x| ~t4.pan_(x.linlin(0, 1, -1, 1)) });

~lcxlParam[\b1_s5_f] = { |x| ~t5.level_(x.linlin(0, 127, 0.0, 1.0)) };
~lcxlParam[\b1_s5_r3] = { |x| ~t5.pan_(x.linlin(0, 127, -1, 1)) };
// ~apcBindParam.(\b0_s5_f,  { |x| ~t5.level_(x) });
// ~apcBindParam.(\b0_s5_r1, { |x| ~t5.pan_(x.linlin(0, 1, -1, 1)) });

~lcxlParam[\b1_s6_f] = { |x| ~t6.level_(x.linlin(0, 127, 0.0, 1.0)) };
~lcxlParam[\b1_s6_r3] = { |x| ~t6.pan_(x.linlin(0, 127, -1, 1)) };
// ~apcBindParam.(\b0_s6_f,  { |x| ~t6.level_(x) });
// ~apcBindParam.(\b0_s6_r1, { |x| ~t6.pan_(x.linlin(0, 1, -1, 1)) });

~lcxlParam[\b1_s7_f] =  { |x| ~t7.level_(x.linlin(0, 127, 0.0, 1.0)) };
~lcxlParam[\b1_s7_r3] = { |x| ~t7.pan_(x.linlin(0, 127, -1, 1)) };
// ~apcBindParam.(\b0_s7_f,  { |x| ~t7.level_(x) });
// ~apcBindParam.(\b0_s7_r1, { |x| ~t7.pan_(x.linlin(0, 1, -1, 1)) });

~lcxlParam[\b1_s8_f] =  { |x| ~t8.level_(x.linlin(0, 127, 0.0, 1.0)) };
~lcxlParam[\b1_s8_r3] = { |x| ~t8.pan_(x.linlin(0, 127, -1, 1)) };
// ~apcBindParam.(\b0_s8_f,  { |x| ~t8.level_(x) });
// ~apcBindParam.(\b0_s8_r1, { |x| ~t8.pan_(x.linlin(0, 1, -1, 1)) });

~lcxlParam[\b2_s1_f] = { |x| ~t9.level_(x.linlin(0, 127, 0.0, 1.0)) };
~lcxlParam[\b2_s1_r3] = { |x| ~t9.pan_(x.linlin(0, 127, -1, 1)) };
// ~apcBindParam.(\b1_s1_f,  { |x| ~t9.level_(x) });
// ~apcBindParam.(\b1_s1_r1, { |x| ~t9.pan_(x.linlin(0, 1, -1, 1)) });

~lcxlParam[\b2_s2_f] = { |x| ~t10.level_(x.linlin(0, 127, 0.0, 1.0)) };
~lcxlParam[\b2_s2_r3] = { |x| ~t10.pan_(x.linlin(0, 127, -1, 1)) };
// ~apcBindParam.(\b1_s2_f,  { |x| ~t10.level_(x) });
// ~apcBindParam.(\b1_s2_r1, { |x| ~t10.pan_(x.linlin(0, 1, -1, 1)) });

~lcxlParam[\b2_s3_f] = { |x| ~t11.level_(x.linlin(0, 127, 0.0, 1.0)) };
~lcxlParam[\b2_s3_r3] = { |x| ~t11.pan_(x.linlin(0, 127, -1, 1)) };
// ~apcBindParam.(\b1_s3_f,  { |x| ~t11.level_(x) });
// ~apcBindParam.(\b1_s3_r1, { |x| ~t11.pan_(x.linlin(0, 1, -1, 1)) });

~lcxlParam[\b2_s4_f] = { |x| ~t12.level_(x.linlin(0, 127, 0.0, 1.0)) };
~lcxlParam[\b2_s4_r3] = { |x| ~t12.pan_(x.linlin(0, 127, -1, 1)) };
// ~apcBindParam.(\b1_s4_f,  { |x| ~t12.level_(x) });
// ~apcBindParam.(\b1_s4_r1, { |x| ~t12.pan_(x.linlin(0, 1, -1, 1)) });

// returns. all outbus -> master inbus
~r1.tryPerform(\free);
~r2.tryPerform(\free);
~r3.tryPerform(\free);
~r4.tryPerform(\free);

~r1 = MixerChannel.new(\r1, s, 2, 2, outbus: ~m1.inbus);
~r2 = MixerChannel.new(\r2, s, 2, 2, outbus: ~m1.inbus);
~r3 = MixerChannel.new(\r3, s, 2, 2, outbus: ~m1.inbus);
~r4 = MixerChannel.new(\r4, s, 2, 2, outbus: ~m1.inbus);

// return faders
~lcxlParam[\b2_s5_f] = { |x| ~r1.level_(x.linlin(0, 127, 0.0, 1.0)) };
~lcxlParam[\b2_s6_f] = { |x| ~r2.level_(x.linlin(0, 127, 0.0, 1.0)) };
// ~apcBindParam[\b1_s5_f] =  { |x| ~r1.level_(x) };
// ~apcBindParam[\b1_s6_f] =  { |x| ~r2.level_(x) };

// r1 reverb. read bus explicitly and return wet. do not call Out or ReplaceOut here
~r1_fx = ~r1.playfx({ |in|
    var sig, wet;  // declare vars at top
    sig = In.ar(~r1.inbus.index, 2);
    wet = FreeVerb2.ar(sig[0], sig[1], mix: 1, room: 0.8, damp: 0.2);
    wet
});

// r2 delay. same pattern
~r2_fx = ~r2.playfx({ |in|
    var sig, wet;
    sig = In.ar(~r2.inbus.index, 2);
    wet = CombL.ar(sig, maxdelaytime: 0.4, delaytime: 0.25, decaytime: 0.6);
    wet
});

// ~r3_fx = ~r3.playfx(\gin1r);

// submix example. perc feeds t1
~perc = MixerChannel.new(\perc, s, 2, 2, outbus: ~t1.inbus);
~pbd1 = MixerChannel.new(\pbd1, s, 2, 2, outbus: ~perc.inbus);
~pbd2 = MixerChannel.new(\pbd2, s, 2, 2, outbus: ~perc.inbus);
~psd1 = MixerChannel.new(\psd1, s, 2, 2, outbus: ~perc.inbus);
~psd2 = MixerChannel.new(\psd2, s, 2, 2, outbus: ~perc.inbus);
~phh1 = MixerChannel.new(\phh1, s, 2, 2, outbus: ~perc.inbus);
~phh2 = MixerChannel.new(\phh2, s, 2, 2, outbus: ~perc.inbus);
~pcp1 = MixerChannel.new(\pcp1, s, 2, 2, outbus: ~perc.inbus);
~pcp2 = MixerChannel.new(\pcp2, s, 2, 2, outbus: ~perc.inbus);
~ptm1 = MixerChannel.new(\ptm1, s, 2, 2, outbus: ~perc.inbus);
~ptm2 = MixerChannel.new(\ptm2, s, 2, 2, outbus: ~perc.inbus);
~ptm3 = MixerChannel.new(\ptm3, s, 2, 2, outbus: ~perc.inbus);
~pcr1 = MixerChannel.new(\pcr1, s, 2, 2, outbus: ~perc.inbus);
~pcr2 = MixerChannel.new(\pcr2, s, 2, 2, outbus: ~perc.inbus);
~pex1 = MixerChannel.new(\pex1, s, 2, 2, outbus: ~perc.inbus);
~pex2 = MixerChannel.new(\pex2, s, 2, 2, outbus: ~perc.inbus);

// convenience. create or replace a post send from any track to any return
~ensurePostSend = { |fromChan, toChan, level = 0.0|
    var h;
    if(fromChan.notNil and: { toChan.notNil }) {
        h = fromChan.newPostSend(toChan, level);
    }{
        h = nil;
    };
    h
};

// default faders
~m1.level_(1.0);
~t1.level_(1.0);
~t2.level_(1.0);
~t3.level_(1.0);
~t4.level_(1.0);
~t5.level_(1.0);
~t6.level_(1.0);
~t7.level_(1.0);
~t8.level_(1.0);
~t9.level_(1.0);
~t10.level_(1.0);
~t11.level_(1.0);
~t12.level_(1.0);
~perc.level_(1.0);
~r1.level_(0.6);
~r2.level_(0.6);
~r3.level_(0.6);
~r4.level_(0.6);
)

